!!!!SEGMENT: pl-kk--kk-i-7--113_anonim-spiritus-sancti-gratia.krn
!!!id: 16xx:952
!!!COM: Anonim
!!!OTL: Spiritus sancti gratia
!!!PDT:
!!!SMS-siglum: PL-Kk
!!!SMS-shelfmark: Kk.I.7
!!!NIFC-rismID: 300258190
!!!URL-scan: http://repozytorium.nifc.pl/skany/pl-kk-nut--i-7
!!!ONB-nifc: UWAGA: C (skan 0083, s.159 ), A (0161, s.143), T(0248, s.159), B(0335, s.155). Następny utwór: Jesu dulcis memoria
!!!SMS-variant:
!!!SMS-altvar:
**kern	**text	**text	**text	**text	**text	**text	**kern	**text	**text	**text	**text	**text	**text	**kern	**text	**text	**text	**text	**text	**text	**kern	**text	**text	**text	**text	**text	**text
*part4	*part4	*part4	*part4	*part4	*part4	*part4	*part3	*part3	*part3	*part3	*part3	*part3	*part3	*part2	*part2	*part2	*part2	*part2	*part2	*part2	*part1	*part1	*part1	*part1	*part1	*part1	*part1
*staff4	*staff4	*staff4	*staff4	*staff4	*staff4	*staff4	*staff3	*staff3	*staff3	*staff3	*staff3	*staff3	*staff3	*staff2	*staff2	*staff2	*staff2	*staff2	*staff2	*staff2	*staff1	*staff1	*staff1	*staff1	*staff1	*staff1	*staff1
*I"[BASSVS.]	*	*	*	*	*	*	*I"[TENOR.]	*	*	*	*	*	*	*I"[ALTVS.]	*	*	*	*	*	*	*I"[CANTVS.]	*	*	*	*	*	*
*I'[B]	*	*	*	*	*	*	*I'[T]	*	*	*	*	*	*	*I'[A]	*	*	*	*	*	*	*I'[C]	*	*	*	*	*	*
*clefF4	*	*	*	*	*	*	*clefC4	*	*	*	*	*	*	*clefC4	*	*	*	*	*	*	*clefC3	*	*	*	*	*	*
*k[]	*	*	*	*	*	*	*k[]	*	*	*	*	*	*	*k[]	*	*	*	*	*	*	*k[]	*	*	*	*	*	*
*M2/1	*	*	*	*	*	*	*M2/1	*	*	*	*	*	*	*M2/1	*	*	*	*	*	*	*M2/1	*	*	*	*	*	*
*met(C|)	*	*	*	*	*	*	*met(C|)	*	*	*	*	*	*	*met(C|)	*	*	*	*	*	*	*met(C|)	*	*	*	*	*	*
=1-	=1-	=1-	=1-	=1-	=1-	=1-	=1-	=1-	=1-	=1-	=1-	=1-	=1-	=1-	=1-	=1-	=1-	=1-	=1-	=1-	=1-	=1-	=1-	=1-	=1-	=1-	=1-
!!LO:TX:t=P:problem:all\right:global
!LO:TX:a:t=P:problem:znak[Bn] - dotyczy poprzedniego utworu w zbiorze	!	!	!	!	!	!	!	!	!	!	!	!	!	!	!	!	!	!	!	!	!LO:TX:t=P:problem:wiele niejasności harmonicznych w utworze	!	!	!	!	!	!
!LO:TX:t=P:problem:przed kluczem inicjał S	!	!	!	!	!	!	!LO:TX:t=P:problem:przed kluczem inicjał S	!	!	!	!	!	!	!LO:TX:t=P:problem:przed kluczem inicjał S	!	!	!	!	!	!	!LO:TX:t=P:problem:przed kluczem inicjał S	!	!	!	!	!	!
1G	Spi-	Di-	Mi-	Di-	Da-	Er-	1G	Spi-	Di-	Mi-	Di-	Da-	Er-	1G	Spi-	Di-	Mi-	Di-	Da-	Er-	1d	Spi-	Di-	Mi-	Di-	Da-	Er-
*2\right	*	*	*	*	*	*	*	*	*	*	*	*	*	*	*	*	*	*	*	*	*2\right	*	*	*	*	*	*
2G\	-ri-	-cens	-sit	-cens	-bi-	-go	2G/	-ri-	-cens	-sit	-cens	-bi-	-go	2G/	-ri-	-cens	-sit	-cens	-bi-	-go	2d\	-ri-	-cens	-sit	-cens	-bi-	-go
!LO:TX:t=P:problem:kreska pseudotaktowa	!	!	!	!	!	!	!LO:TX:t=P:problem:kreska pseudotaktowa	!	!	!	!	!	!	!LO:TX:t=P:problem:kreska pseudotaktowa	!	!	!	!	!	!	!LO:TX:t=P:problem:kreska pseudotaktowa	!	!	!	!	!	!
2G\	-tus	e-	per	e-	-tur	nunc	2G/	-tus	e-	per	e-	-tur	nunc	2G/	-tus	e-	per	e-	-tur	nunc	2d\	-tus	e-	per	e-	-tur	nunc
=2-	=2-	=2-	=2-	=2-	=2-	=2-	=2-	=2-	=2-	=2-	=2-	=2-	=2-	=2-	=2-	=2-	=2-	=2-	=2-	=2-	=2-	=2-	=2-	=2-	=2-	=2-	=2-
*	*	*	*	*	*	*	*2\right	*	*	*	*	*	*	*	*	*	*	*	*	*	*	*	*	*	*	*	*
2.F\	San-	-is	mun-	-is	Vo-	cum	2.c\	San-	-is	mun-	-is	Vo-	cum	2.A/	San-	-is	mun-	-is	Vo-	cum	2.f\	San-	-is-	mun-	-is	Vo-	cum
!LO:TX:t=P:problem:kreska pseudotaktowa	!	!	!	!	!	!	!	!	!	!	!	!	!	!	!	!	!	!	!	!	!	!	!	!	!	!	!
4E\	.	.	.	.	.	.	4B\	.	.	.	.	.	.	4B\	.	.	.	.	.	.	4e\	.	.	.	.	.	.
*	*	*	*	*	*	*	*	*	*	*	*	*	*	*2\right	*	*	*	*	*	*	*	*	*	*	*	*	*
2F\	.	.	.	.	-bis	.	2A/	.	.	.	.	-bis	.	2c\	.	.	.	.	-bis	.	2f\	.	.	.	.	-bis	.
!	!	!	!	!	!	!	!LO:TX:t=P:problem:kreska pseudotaktowa	!	!	!	!	!	!	!LO:TX:t=P:problem:kreska pseudotaktowa	!	!	!	!	!	!	!LO:TX:t=P:problem:kreska pseudotaktowa	!	!	!	!	!	!
2E\	-cti	ac-	-di	cum	in	tri-	2G/	cti	ac-	-di	cum	in	tri-	2B\	-cti	ac-	-di	cum	in	tri-	2g\	-cti	-ac-	-di	cum	in	tri-
=3-	=3-	=3-	=3-	=3-	=3-	=3-	=3-	=3-	=3-	=3-	=3-	=3-	=3-	=3-	=3-	=3-	=3-	=3-	=3-	=3-	=3-	=3-	=3-	=3-	=3-	=3-	=3-
2F\	gra-	-ci-	Ma-	ste-	il-	-pu-	2A/	gra-	-ci-	ma-	Ste-	il-	-pu-	2c\	gra-	-ci-	Ma-	Ste-	il-	-pu-	2f\	gra-	-ci-	Ma-	Ste-	il-	-pu-
!LO:TX:t=P:problem:kreska pseudotaktowa	!	!	!	!	!	!	!	!	!	!	!	!	!	!	!	!	!	!	!	!	!	!	!	!	!	!	!
2C/	.	.	.	.	.	.	1c	.	.	-chi-	-te-	-la	.	2e\	.	.	.	.	.	.	2g\	.	.	.	.	.	.
2.GG/	.	.	-chi-	te-	-la	.	.	.	.	.	.	.	.	2.d\	.	.	chi-	-te-	-la	.	2.g\	.	.	-chi-	-te-	-la	.
.	.	.	.	.	.	.	2B\	-ti-	-pi-	-n(e-	-ri-	ho-	-di-	.	.	.	.	.	.	.	.	.	.	.	.	.	.
!	!	!	!	!	!	!	!	!	!	!	!	!	!	!LO:TX:t=P:problem:kreska pseudotaktowa	!	!	!	!	!	!	!LO:TX:t=P:problem:kreska pseudotaktowa	!	!	!	!	!	!
4GG/	-ti-	-pi-	-n(e-	-ri-	ho-	-di-	.	.	.	.	.	.	.	4d\	-ti-	-pi-	-n(e-	-ri-	ho-	-di-	4g\	-ti-	-pi-	-ne-	-ri-	ho-	-di-
=4-	=4-	=4-	=4-	=4-	=4-	=4-	=4-	=4-	=4-	=4-	=4-	=4-	=4-	=4-	=4-	=4-	=4-	=4-	=4-	=4-	=4-	=4-	=4-	=4-	=4-	=4-	=4-
!LO:TX:t=P:problem:kreska pseudotaktowa	!	!	!	!	!	!	!LO:TX:t=P:problem:kreska pseudotaktowa	!	!	!	!	!	!	!LO:TX:t=P:problem:kreska pseudotaktowa	!	!	!	!	!	!	!	!	!	!	!	!	!
1C	-a	-te	-am)	-tis	-ra	-o	1c	-a	-te	-am)	-tis	-ra	-o	1c	-a	-te	-am)	-tis	-ra	-o	1.e	-a	-te	-am	-tis	-ra	-o
2rBB	.	.	.	.	.	.	2r	.	.	.	.	.	.	2r	.	.	.	.	.	.	.	.	.	.	.	.	.
!	!	!	!	!	!	!	!	!	!	!	!	!	!	!	!	!	!	!	!	!	!LO:TX:t=P:problem:kreska pseudotaktowa	!	!	!	!	!	!
2C/	A-	Spi-	fa-	co-	[ho-	Be-	2c\	A-	Spi-	pha-	co-	ho-	Be-	2G/	A-	Spi-	pha-	co-	ho-	Be-	2e\	A-	Spi-	Pha-	Co-	[ho-	Be-
=5-	=5-	=5-	=5-	=5-	=5-	=5-	=5-	=5-	=5-	=5-	=5-	=5-	=5-	=5-	=5-	=5-	=5-	=5-	=5-	=5-	=5-	=5-	=5-	=5-	=5-	=5-	=5-
2GG/	-po-	-ri-	-ri	-ram	-nor]	-ne-	2d\	-po-	-ri-	-ri	-ram	-nor	-ne-	2d\	-po-	-ri-	-ri	-ram	-nor	-ne-	2g\	-p(o-	-ri-	-ri	-ram	-nor]	-ne-
!LO:TX:t=P:problem:kreska pseudotaktowa	!	!	!	!	!	!	!LO:TX:t=P:problem:kreska pseudotaktowa	!	!	!	!	!	!	!LO:TX:t=P:problem:kreska pseudotaktowa	!	!	!	!	!	!	!	!	!	!	!	!	!
2G\	-sto-	-tum	ver-	Re-	Vir-	-di-	2d\	-sto-	-t(um)	ver-	Re-	Vir-	-di-	2B\	-sto-	-t(um)	Ver-	Re-	Vir-	-di-	2g\	-sto)-	-tum	ver-	Re-	Vir-	-di-
1A	-lo-	San-	-bi	-gi-	-tus	-ca-	1e	-lo-	San-	-bi	-gi-	-tus	-ca-	(1c	-lo-	San-	-bi	-gi-	-tus	-ca-	1g	-lo-	San-	-bi-	-gi-	-tus	-ca-
=6-	=6-	=6-	=6-	=6-	=6-	=6-	=6-	=6-	=6-	=6-	=6-	=6-	=6-	=6-	=6-	=6-	=6-	=6-	=6-	=6-	=6-	=6-	=6-	=6-	=6-	=6-	=6-
2.F\	-r(um)	-ctum	po-	-bus	et	-mus	2.A/	-rum	-ct(um)	po-	-bus	et	-m(us)	1f)	.	.	.	-bus	et	.	1.a	-rum	-ctum	-po-	-bus	et	-m(us)
!LO:TX:t=P:problem:kreska pseudotaktowa	!	!	!	!	!	!	!LO:TX:t=P:problem:kreska pseudotaktowa	!	!	!	!	!	!	!	!	!	!	!	!	!	!	!	!	!	!	!	!
4G\	.	.	.	.	.	.	4B\	.	.	.	et	Sa-	.	.	.	.	.	.	.	.	.	.	.	.	.	.	.
2A\	pec-	ho-	-ten-	et	Sa-	D(o-	2c\	pec-	ho-	-ten-	Prin-	-pi-	D(o-	2e\	-rum	-ct(um)	po-	et	Sa-	-m(us)	.	.	.	.	.	.	.
2B-X\	.	.	.	Prin-	-pi-	.	1d\	.	.	.	-ci-	-en-	.	2d\	.	.	.	Prin-	-pi-	.	4f\	.	.	.	et	Sa-	.
!	!	!	!	!	!	!	!	!	!	!	!	!	!	!	!	!	!	!	!	!	!LO:TX:t=P:problem:kreska pseudotaktowa	!	!	!	!	!	!
.	.	.	.	.	.	.	.	.	.	.	.	.	.	.	.	.	.	.	.	.	4g\	.	.	.	Prin-	-pi-	.
=7-	=7-	=7-	=7-	=7-	=7-	=7-	=7-	=7-	=7-	=7-	=7-	=7-	=7-	=7-	=7-	=7-	=7-	=7-	=7-	=7-	=7-	=7-	=7-	=7-	=7-	=7-	=7-
2.A\	.	.	.	-ci-	-en-	.	.	.	.	.	.	.	.	2.e\	pec-	ho-	-ten-	-ci-	-en-	D(o-	2.a\	pec-	ho-	-ten-	-ci-	-en-	D(o-
.	.	.	.	.	.	.	2c\	-to-	-di-	-ti-	-pi-	-ti-	-mi)-	.	.	.	.	.	.	.	.	.	.	.	.	.	.
!	!	!	!	!	!	!	!	!	!	!	!	!	!	!LO:TX:t=P:problem:kreska pseudotaktowa	!	!	!	!	!	!	!	!	!	!	!	!	!
4A\	-to-	-di-	-ti-	-pi-	-ti-	-mi)-	.	.	.	.	.	.	.	4e\	-to-	-di-	-ti-	-pi-	-ti-	-mi)-	4a\	-to-	-di-	-ti-	-pi-	-ti-	-mi)-
!	!	!	!	!	!	!	!	!	!	!	!	!	!	!	!	!	!	!	!	!	!LO:TX:t=P:problem:kreska pseudotaktowa	!	!	!	!	!	!
!LO:TX:t=P:problem:kreska pseudotaktowa	!	!	!	!	!	!	!LO:TX:t=P:problem:kreska pseudotaktowa	!	!	!	!	!	!	!LO:TX:t=P:problem:kreska pseudotaktowa	!	!	!	!	!	!	!LO:TX:b:t=P:problem:♯below	!	!	!	!	!	!
1D	-ra	-e	-am	-b(us)	-a	-no	1d	-ra	-e	-(am)	-b(us)	-a	-no	1d	-ra	-e	-(am)	-b(us)	-a	-no	1f#X	-ra	-e,	-am	-b(us)	-a	-no
=8-	=8-	=8-	=8-	=8-	=8-	=8-	=8-	=8-	=8-	=8-	=8-	=8-	=8-	=8-	=8-	=8-	=8-	=8-	=8-	=8-	=8-	=8-	=8-	=8-	=8-	=8-	=8-
2rF	.	.	.	.	.	.	2r	.	.	.	.	.	.	2r	.	.	.	.	.	.	2r	.	.	.	.	.	.
2D/	re-	qui	Ut	no-	quae	Lau-	2d\	re-	qui	Ut	no-	quae	Lau-	2d\	re-	qui	Ut	no-	quae	Lau-	2fny\	re-	qui	Ut	no-	quae	Lau-
2A\	-ple-	vos	prae-	-li-	re-	-de-	2c\	-ple-	Vos	prae-	-li-	re-	-de-	2e\	-ple-	Vos	prae-	-li-	re-	-de-	2a\	-ple-	Vos	prae-	-li-	re-	-de-
!LO:TX:t=P:problem:kreska pseudotaktowa	!	!	!	!	!	!	!LO:TX:t=P:problem:kreska pseudotaktowa	!	!	!	!	!	!	!LO:TX:t=P:problem:kreska pseudotaktowa	!	!	!	!	!	!	!LO:TX:t=P:problem:kreska pseudotaktowa	!	!	!	!	!	!
2G\	-vit	do-	-di-	-te	-plet	-tur	2B\	-vit	do-	-di-	-te	-plet	-tur	2d\	-vit	do-	-di-	-te	-plet	-tur	2g\	-vit	do-	-di-	-te	-plet	-tur
=9-	=9-	=9-	=9-	=9-	=9-	=9-	=9-	=9-	=9-	=9-	=9-	=9-	=9-	=9-	=9-	=9-	=9-	=9-	=9-	=9-	=9-	=9-	=9-	=9-	=9-	=9-	=9-
2.F\	Su-	-ce-	-ca-	prae-	de-	S[an-	2.A/	Su-	-ce-	-ca-	prae	et-	S[an-	2.c\	Su-	-ce-	-ca-	prae-	de-	S[an-	2.f\	Su-	-ce-	-ca-	prae-	de-	San-
4G\	.	.	.	.	.	.	4B\	.	.	.	.	.	.	4B\	.	.	.	.	.	.	4d\	.	.	.	.	.	.
2A\	.	.	.	.	.	.	2c\	.	.	.	.	.	.	1A	-a	-bit	-rent	-me-	-si-	-cta]	2e\	-a	-bit	-rent	-me-	-si-	-cta
1G\	-a	-bit	-rent	-me-	-si-	cta]	1B\	-a	-bit	-rent	me-	-de-	-cta]	.	.	.	.	.	.	.	1g\	gra-	o-	Va-	-di-	-de-	Tri-
=10-	=10-	=10-	=10-	=10-	=10-	=10-	=10-	=10-	=10-	=10-	=10-	=10-	=10-	=10-	=10-	=10-	=10-	=10-	=10-	=10-	=10-	=10-	=10-	=10-	=10-	=10-	=10-
.	.	.	.	.	.	.	.	.	.	.	.	.	.	1.d	gra-	o-	Va-	-di-	-de-	Tri-	.	.	.	.	.	.	.
!LO:TX:t=P:problem:kreska pseudotaktowa	!	!	!	!	!	!	!	!	!	!	!	!	!	!	!	!	!	!	!	!	!LO:TX:t=P:problem:kreska pseudotaktowa	!	!	!	!	!	!
2C/	gra-	o-	Va-	-di-	-de-	Tri-	1A	gra-	o-	Va-	-di-	-si-	Tri-	.	.	.	.	.	.	.	2e\	.	.	.	.	.	.
2D/	.	.	.	.	.	.	.	.	.	.	.	.	.	.	.	.	.	.	.	.	2d\	.	.	.	.	.	.
2E\	.	.	.	.	.	.	1G/	.	.	.	.	-de-	.	4c\	.	.	.	.	.	.	2B/	.	.	.	.	.	.
.	.	.	.	.	.	.	.	.	.	.	.	.	.	4B\	.	.	.	.	.	.	.	.	.	.	.	.	.
=11-	=11-	=11-	=11-	=11-	=11-	=11-	=11-	=11-	=11-	=11-	=11-	=11-	=11-	=11-	=11-	=11-	=11-	=11-	=11-	=11-	=11-	=11-	=11-	=11-	=11-	=11-	=11-
2.D/	.	.	.	.	.	.	.	.	.	.	.	.	.	2.A/	.	.	.	.	.	.	2.d\	.	.	.	.	.	.
!	!	!	!	!	!	!	!LO:TX:t=P:problem:kreska pseudotaktowa	!	!	!	!	!	!	!	!	!	!	!	!	!	!	!	!	!	!	!	!
.	.	.	.	.	.	.	2F/	-ti-	-mni-	-ri-	-ta-	-ri-	-ni-	.	.	.	.	.	.	.	.	.	.	.	.	.	.
4D/	-ti-	-mni-	-ri-	-ta-	-ri-	-ni-	.	.	.	.	.	.	.	4A/	-ti-	-mni-	-ri-	-ta-	-ri-	-ni-	4d\	-ti-	-mni-	-ri-	-ta-	-ri-	-ni-
!LO:TX:t=P:problem:kreska pseudotaktowa	!	!	!	!	!	!	!	!	!	!	!	!	!	!LO:TX:t=P:problem:kreska pseudotaktowa	!	!	!	!	!	!	!LO:TX:t=P:problem:kreska pseudotaktowa	!	!	!	!	!	!
1GG	-a.	-a	-is	-ri	-a	-tas	1G	-a	-a	-is	-ri	-a	-tas	1G	-a	-a	-is	-ri	-a	-tas	1d	-a	-a	-is	-ri	-a	-tas
=12-	=12-	=12-	=12-	=12-	=12-	=12-	=12-	=12-	=12-	=12-	=12-	=12-	=12-	=12-	=12-	=12-	=12-	=12-	=12-	=12-	=12-	=12-	=12-	=12-	=12-	=12-	=12-
2r	.	.	.	.	.	.	2r	.	.	.	.	.	.	2r	.	.	.	.	.	.	2re	.	.	.	.	.	.
2G\	do-	fu-	lin-	quo-	Su-	De-	2d\	do-	fu-	Lin-	quo-	Su-	De-	2B\	do-	fu-	Lin-	quo-	Su-	De-	2d\	do-	fu-	Lin-	quo-	Su-	De-
2G\	-nans	-tu-	-guis	-mo-	-a	-o	2d\	-nans	-tu-	-guis	-mo-	-a	-o	2B\	-nans	-tu-	-guis	-mo-	-a	-o	2d\	-nans	-tu-	-guis	-mo-	-a	-o
!LO:TX:t=P:problem:kreska pseudotaktowa	!	!	!	!	!	!	!LO:TX:t=P:problem:kreska pseudotaktowa	!	!	!	!	!	!	!	!	!	!	!	!	!	!LO:TX:t=P:problem:kreska pseudotaktowa	!	!	!	!	!	!
2G\	lin-	-ra	o-	-do	Vir-	di-	2d\	lin-	-ra	o-	-do	Vir-	di-	2B\	lin-	-ra	o-	-do	Vir-	di-	2d\	lin-	-ra	o-	-do	Vir-	di-
=13-	=13-	=13-	=13-	=13-	=13-	=13-	=13-	=13-	=13-	=13-	=13-	=13-	=13-	=13-	=13-	=13-	=13-	=13-	=13-	=13-	=13-	=13-	=13-	=13-	=13-	=13-	=13-
1C	-gua-	et	-mni	aut	-tu-	-ca-	2.A/	-gua-	et	-mni	aut	-tu-	-ca-	2.c\	-gua-	et	-mni	aut	-tu-	-ca-	1e	-gua-	et	-(mn)i	aut	-tu-	-ca-
!	!	!	!	!	!	!	!	!	!	!	!	!	!	!LO:TX:t=P:problem:kreska pseudotaktowa	!	!	!	!	!	!	!	!	!	!	!	!	!
.	.	.	.	.	.	.	4B\	.	.	.	.	.	.	4B\	.	.	.	.	.	.	.	.	.	.	.	.	.
!LO:TX:t=P:problem:kreska pseudotaktowa	!	!	!	!	!	!	!	!	!	!	!	!	!	!	!	!	!	!	!	!	!	!	!	!	!	!	!
1F	.	.	.	quod	.	.	1c	.	.	.	quid	.	.	1A	.	.	.	.	.	.	1f	.	.	.	.	.	.
=14-	=14-	=14-	=14-	=14-	=14-	=14-	=14-	=14-	=14-	=14-	=14-	=14-	=14-	=14-	=14-	=14-	=14-	=14-	=14-	=14-	=14-	=14-	=14-	=14-	=14-	=14-	=14-
2.G\	.	.	.	.	.	.	2.B\	.	.	.	.	.	.	2.d\	.	.	.	quid	.	.	2.g\	.	.	.	quid	.	.
!	!	!	!	!	!	!	!LO:TX:t=P:problem:kreska pseudotaktowa	!	!	!	!	!	!	!	!	!	!	!	!	!	!LO:TX:t=P:problem:kreska pseudotaktowa	!	!	!	!	!	!
4F\	.	.	.	.	.	.	4A/	.	.	.	.	.	.	4c\	.	.	.	.	.	.	4c/	.	.	.	.	.	.
2G\	.	.	.	.	.	.	2B\	.	.	.	.	.	.	2d\	.	.	.	.	.	.	2d\	.	.	.	.	.	.
!LO:TX:t=P:problem:kreska pseudotaktowa	!	!	!	!	!	!	!	!	!	!	!	!	!	!	!	!	!	!	!	!	!	!	!	!	!	!	!
2C/	.	.	.	.	.	.	1A\	-r(um)	prae-	cre-	lo-	-te	-mus	1c\	-r(um)	prae-	cre-	lo-	-te	-mus	2e\	-rum	prae-	Cre-	lo-	-te	-mus
=15-	=15-	=15-	=15-	=15-	=15-	=15-	=15-	=15-	=15-	=15-	=15-	=15-	=15-	=15-	=15-	=15-	=15-	=15-	=15-	=15-	=15-	=15-	=15-	=15-	=15-	=15-	=15-
2D/	.	.	.	.	.	.	.	.	.	.	.	.	.	.	.	.	.	.	.	.	2f\	.	.	.	.	.	.
!	!	!	!	!	!	!	!	!	!	!	!	!	!	!LO:TX:t=P:problem:kreska pseudotaktowa	!	!	!	!	!	!	!LO:TX:t=P:problem:kreska pseudotaktowa	!	!	!	!	!	!
2E\	-ru(m)	prae-	Cre-	lo-	-te	-mus	1G	ge-	-sen-	-a-	-qua-	di-	gra-	2B\	.	.	.	.	.	.	2g\	.	.	.	.	.	.
2.D/	ge-	-sen-	-a-	-qua-	di-	gra-	.	.	.	.	.	.	.	2.A/	-ge-	-sen-	-a-	-qua-	di-	gra-	2.d\	g(e)-	-sen-	-a-	-qua-	di-	gra-
!	!	!	!	!	!	!	!LO:TX:t=P:problem:kreska pseudotaktowa	!	!	!	!	!	!	!	!	!	!	!	!	!	!	!	!	!	!	!	!
.	.	.	.	.	.	.	2F/	-ne-	-ti-	-tu-	-mi-	-vi-	-ti-	.	.	.	.	.	.	.	.	.	.	.	.	.	.
4D/	-ne-	-ti-	-tu-	-mi-	-vi-	-ti-	.	.	.	.	.	.	.	4A/	-ne-	-ti-	-tu-	-mi-	-vi-	-ti-	4d\	-n(e-	-ti-	-tu-	-mi-	-vi-	-ti-
=16-	=16-	=16-	=16-	=16-	=16-	=16-	=16-	=16-	=16-	=16-	=16-	=16-	=16-	=16-	=16-	=16-	=16-	=16-	=16-	=16-	=16-	=16-	=16-	=16-	=16-	=16-	=16-
!	!	!	!	!	!	!	!	!	!	!	!	!	!	!LO:TX:t=P:problem:kreska pseudotaktowa	!	!	!	!	!	!	!	!	!	!	!	!	!
1GG,<	-ra	-a	-rae	-ni	-na	-as	1G	-ra	-a.	-rae	-ni	-na	-as	1G	-ra	-a.	-rae.	-ni	-na	-as	1d	-ra)	-a.	-rae	-ni	-na	-as
2rF	.	.	.	.	.	.	2r	.	.	.	.	.	.	2r	.	.	.	.	.	.	1d	.	.	.	.	.	.
*	*ij	*ij	*ij	*ij	*ij	*ij	*	*ij	*ij	*ij	*ij	*ij	*ij	*	*	*	*	*	*	*	*	*	*	*	*	*	*
!	!	!	!	!	!	!	!LO:TX:t=P:problem:znak powtórzenia tesktu, w każdym głosie inna ilość sylab	!	!	!	!	!	!	!	!	!	!	!	!	!	!	!	!	!	!	!	!
!LO:TX:t=P:problem:znak powtórzenia tesktu, w każdym głosie inna ilość sylab	!	!	!	!	!	!	!LO:TX:t=P:problem:kreska pseudotaktowa	!	!	!	!	!	!	!LO:TX:t=P:problem:znak powtórzenia tesktu, w każdym głosie inna ilość sylab..., nie próbowałem zgadywać :)	!	!	!	!	!	!	!	!	!	!	!	!	!
2G\	.	.	.	.	.	.	2B\	lin-	et	o-	aut	Vir-	di-	0G/	.	.	.	.	.	.	.	.	.	.	.	.	.
=17-	=17-	=17-	=17-	=17-	=17-	=17-	=17-	=17-	=17-	=17-	=17-	=17-	=17-	=17-	=17-	=17-	=17-	=17-	=17-	=17-	=17-	=17-	=17-	=17-	=17-	=17-	=17-
!	!	!	!	!	!	!	!	!	!	!	!	!	!	!	!	!	!	!	!	!	!LO:TX:t=P:problem:uszkodzony papier	!	!	!	!	!	!
2G\	.	.	.	.	.	.	2B\	-gua-	prae-	-mni	quid	-tu-	-ca-	.	.	.	.	.	.	.	0ryy	.	.	.	.	.	.
2G\	.	.	.	.	.	.	2B\	-rum	-sen-	cre-	lo-	-te	-mus	.	.	.	.	.	.	.	.	.	.	.	.	.	.
1C	.	.	.	.	.	.	2c\	ge-	-ti-	-a-	-qua-	di-	gra-	.	.	.	.	.	.	.	.	.	.	.	.	.	.
!	!	!	!	!	!	!	!	!	!	!	!	!	!	!LO:N:vis=0	!	!	!	!	!	!	!	!	!	!	!	!	!
.	.	.	.	.	.	.	2c\	-ne-	-a	-tu-	-mi-	-vi-	-ti-	2G/	.	.	.	.	.	.	.	.	.	.	.	.	.
=18-	=18-	=18-	=18-	=18-	=18-	=18-	=18-	=18-	=18-	=18-	=18-	=18-	=18-	=18-	=18-	=18-	=18-	=18-	=18-	=18-	=18-	=18-	=18-	=18-	=18-	=18-	=18-
!LO:TX:t=P:problem:uszkodzony papier	!	!	!	!	!	!	!	!	!	!	!	!	!	!	!	!	!	!	!	!	!	!	!	!	!	!	!
0GG;	.	.	.	.	.	.	0B;<	-ra	.	-rae	-ni	-na	-as	0G;;	.	.	.	.	.	.	0ryy	.	.	.	.	.	.
*	*Xij	*Xij	*Xij	*Xij	*Xij	*Xij	*	*Xij	*Xij	*Xij	*Xij	*Xij	*Xij	*	*	*	*	*	*	*	*	*	*	*	*	*	*
!LO:PB:g=original	!	!	!	!	!	!	!	!	!	!	!	!	!	!LO:PB:g=original	!	!	!	!	!	!	!LO:PB:g=original	!	!	!	!	!	!
=-	=-	=-	=-	=-	=-	=-	=||	=-	=-	=-	=-	=-	=-	=-	=-	=-	=-	=-	=-	=-	=-	=-	=-	=-	=-	=-	=-
*-	*-	*-	*-	*-	*-	*-	*-	*-	*-	*-	*-	*-	*-	*-	*-	*-	*-	*-	*-	*-	*-	*-	*-	*-	*-	*-	*-
!!!system-decoration: [(s1,s2,s3,s4)]
!!!ENC: Andrzej Borzym
!!!END: 2021-03-05
!!!ENC: Marta Chmielewska
!!!END: 2021-03-20
!!!RDF**kern: < = below
!!!RDF**kern: > = above
